X:553
T: Schifflein, Schifflein
N: T0441
O: Luxemburg
S: Singendes Volk, Esch-Alzette, 1937 posth.]
N: Rammeldingen, J.P. Gloden, 26.12.1932;
N: (252b)- Blascheid, hhh Nikolaus Perl, 1902
R: Abschiedslied, Soldatenlied, Kriegslied]
M: 3/4
L: 1/8
K: D
DF | A2A2BA | F2D
DDF | A2A2BA | F2D
FAA | B2A2Bc | dcd
AGF | B2A2FE | D2z2

@@@ Tune index: 8607
